X:5
T:Misto
C:ONUKA
M:4/4
L:1/8
K:C
Q:1/4=120
z2 A2 e2 dg | e6 dc | B/c/ B4-BAG | A6 Gc |
   A4 e2 da | e6 dc | B/c/ B4-BAG | A6 |

